X: 37346
T: Slan Le Maigh
R: reel
M: 4/4
K: Dmajor
A2|:(d3 c) B4|{cB}A6 B2|(d3 c) B4|A6 G2|
(F3 A) B3 g|f3{gf}e (d3 c)|d8:|
(d4 defg)|a3 b a3 g|f3 d B4|{cB}A8|(f6 g2)|
(a3 f) d4|(c3 d) B4|A8||
(f6 g2)|(a6 gf)|g2 e6|(f6 g2)|(a3 b) (a3 g)|
f3 d B4|A6 G2|(F3 A) B3 g|(f3{gf}e) (d3 c)|d8||

